fs/target_edit_24_filled.svg

<svg viewBox="0 0 24 24" fill="none" xmlns="http://www.w3.org/2000/svg" height="1em" width="1em">
  <path d="M11.9992 13.999C13.1036 13.999 13.999 13.1036 13.999 11.9992C13.999 10.8947 13.1036 9.99933 11.9992 9.99933C10.8947 9.99933 9.99933 10.8947 9.99933 11.9992C9.99933 13.1036 10.8947 13.999 11.9992 13.999ZM5.99966 11.9992C5.99966 8.68573 8.68573 5.99966 11.9992 5.99966C15.3126 5.99966 17.9987 8.68573 17.9987 11.9992C17.9987 12.1221 17.995 12.2441 17.9877 12.3651L12.4894 17.8634C12.449 17.9039 12.4095 17.9452 12.3711 17.9873C12.2481 17.9948 12.1241 17.9987 11.9992 17.9987C8.68573 17.9987 5.99966 15.3126 5.99966 11.9992ZM11.9992 7.9995C9.79021 7.9995 7.9995 9.79021 7.9995 11.9992C7.9995 14.2081 9.79021 15.9988 11.9992 15.9988C14.2081 15.9988 15.9988 14.2081 15.9988 11.9992C15.9988 9.79021 14.2081 7.9995 11.9992 7.9995ZM11.9992 3.99983C16.1095 3.99983 19.4958 7.09996 19.9473 11.0896C20.6171 10.9294 21.3275 10.9822 21.9705 11.2479C21.5864 6.07642 17.2688 2 11.9992 2C6.47678 2 2 6.47678 2 11.9992C2 17.1838 5.94594 21.4468 10.9985 21.9489C10.9961 21.7719 11.0165 21.5899 11.0625 21.4059L11.4195 19.9778C7.27219 19.6808 3.99983 16.2221 3.99983 11.9992C3.99983 7.58125 7.58125 3.99983 11.9992 3.99983ZM19.0984 12.6686L13.1965 18.5705C12.8524 18.9146 12.6083 19.3458 12.4902 19.8179L12.0326 21.6484C11.8336 22.4445 12.5547 23.1656 13.3507 22.9666L15.1813 22.5089C15.6534 22.3909 16.0846 22.1468 16.4287 21.8027L22.3306 15.9007C23.2231 15.0082 23.2231 13.5611 22.3306 12.6686C21.4381 11.776 19.991 11.776 19.0984 12.6686Z" fill="#212121"/>
</svg>

<svg viewBox="0 0 24 24" fill="none" xmlns="http://www.w3.org/2000/svg" height="1em" width="1em">
  <path d="M12 13.999a2 2 0 1 0-.001-4 2 2 0 0 0 0 4Zm-6-2a6 6 0 1 1 11.988.366l-5.499 5.498c-.04.04-.08.082-.118.124A6 6 0 0 1 6 12Zm6-4a4 4 0 1 0 0 8 4 4 0 0 0 0-8Zm0-4a8 8 0 0 1 7.947 7.09 3.3 3.3 0 0 1 2.024.159C21.585 6.076 17.269 2 11.999 2 6.477 2 2 6.477 2 12c0 5.184 3.946 9.447 8.998 9.949a2.117 2.117 0 0 1 .065-.543l.356-1.428A8 8 0 0 1 12 4Zm7.098 8.67-5.901 5.901a2.686 2.686 0 0 0-.707 1.248l-.457 1.83a1.087 1.087 0 0 0 1.318 1.319l1.83-.458a2.685 2.685 0 0 0 1.248-.706L22.33 15.9a2.285 2.285 0 0 0-3.233-3.232Z" fill="#212121"/>
</svg>
